X: 37990
T: Special Day
R: waltz
M: 3/4
K: Dmajor
DE|:F3A FD|E2 D2 DE|F3E DC|B,3A, DE|
F3A FD|E2 D2 DC|B,3C DF|1 E3A, DE:|2 E6||
|:DA, DF AF|G2 F2 E2|FD FA dA|B2 A2 G2|
F3G AF|E3F GE|D4 C2|1 B,4 C2:|2 B,3A, DE||

